images/quotes.svg

<svg width="113" height="97" viewBox="0 0 113 97" fill="none" xmlns="http://www.w3.org/2000/svg">
<path fill-rule="evenodd" clip-rule="evenodd" d="M47.0027 8.53683C48.0115 4.72991 45.1412 0.999878 41.2029 0.999878H26.786C24.2305 0.999878 21.9555 2.61847 21.1177 5.03266L1.84156 60.575C1.54537 61.3147 1.2824 62.0712 1.05449 62.8429L1.00156 62.9954C1.00086 62.9974 1.00259 62.9994 1.0047 62.9991C1.00674 62.9987 1.00845 63.0006 1.00788 63.0026C0.351624 65.2788 0 67.6841 0 70.1715C0 84.4362 11.5638 96.0001 25.8286 96.0001C40.0933 96.0001 51.6571 84.4362 51.6571 70.1715C51.6571 61.6379 47.5186 54.0709 41.1392 49.368C38.8105 47.6513 37.3979 44.7812 38.139 41.9848L47.0027 8.53683Z" fill="#F4F4F4"/>
<path fill-rule="evenodd" clip-rule="evenodd" d="M107.777 8.2928C108.784 4.48627 105.914 0.757446 101.976 0.757446H88.2131C85.6569 0.757446 83.3813 2.37699 82.5441 4.79219L63.3264 60.2277C62.0485 63.2885 61.3428 66.6477 61.3428 70.1717C61.3428 84.4364 72.9066 96.0003 87.1713 96.0003C101.436 96.0003 113 84.4364 113 70.1717C113 61.4623 108.689 53.7597 102.085 49.0812C99.6807 47.3781 98.2025 44.4619 98.9564 41.6138L107.777 8.2928Z" fill="#F4F4F4"/>
</svg>

<svg width="113" height="97" fill="none" xmlns="http://www.w3.org/2000/svg"><path fill-rule="evenodd" clip-rule="evenodd" d="M47.003 8.537C48.01 4.73 45.14 1 41.203 1H26.786a6 6 0 0 0-5.668 4.033L1.842 60.575c-.297.74-.56 1.496-.788 2.268l-.052.152c-.001.002 0 .004.003.004.002 0 .003.002.003.004A25.842 25.842 0 0 0 0 70.17c0 14.265 11.564 25.83 25.829 25.83 14.264 0 25.828-11.565 25.828-25.83 0-8.533-4.138-16.1-10.518-20.803-2.329-1.717-3.741-4.587-3-7.383l8.864-33.448ZM107.777 8.293c1.007-3.807-1.863-7.536-5.801-7.536H88.213a6 6 0 0 0-5.669 4.035L63.326 60.228a25.75 25.75 0 0 0-1.983 9.944C61.343 84.436 72.907 96 87.17 96 101.436 96 113 84.436 113 70.172c0-8.71-4.311-16.412-10.915-21.09-2.404-1.704-3.882-4.62-3.129-7.468l8.821-33.321Z" fill="#F4F4F4"/></svg>
